X:1
T:[ID 1-26a]
T:[ID 1-26a]
T:Bezeichnung standardisiert: Menuett Men\"uet
T:Urheber unbekannt Datum in der hier transkribierten schriftlichen Quelle: vermutlich vor 1767
C:Urheber unbekannt
C:Datum in der hier transkribierten schriftlichen Quelle: vermutlich vor 1767
L:1/8
M:3/4
K:D
V:1 treble 
V:1
 D2 D2 D2 | (3dcB{B} A4 | G2 F2 E2 | F2 EF D2 | A2 A2 A2 | (3a^gf{f} e4 | (3dcB{c} B4 | A6 :: %8
 A2 A2 A2 | (3agf{f} g4 | A2 A2 A2 | (3gfe f4 | B2 e2 fg | c2 BA d2 | GBAGFE | D6 :| %16

